X: 3295
M: 6/8
L: 1/8
K: D
ud |\
|: f |\
(a2b) afd | fed B2b | (a2b) afd | fed d2f |\
(a2b) afd | fed B2d | ABd daf | fed d2 :|


